symbols/web/ramen_dining/materialsymbolsrounded/ramen_dining_wght500fill1_20px.svg

<svg xmlns="http://www.w3.org/2000/svg" height="20" width="20"><path d="M7.396 18.562q-.396 0-.698-.291-.302-.292-.302-.688v-.562q-1.979-.813-3.323-2.49-1.344-1.677-1.552-3.76-.042-.438.271-.771.312-.333.77-.333h.876V4.062q0-.374.25-.666.25-.292.624-.334l13.146-1.458q.313-.042.542.167.229.208.229.521 0 .25-.177.437-.177.188-.427.229l-8.75 1v1.354h8.667q.27 0 .458.188t.188.479q0 .292-.188.49t-.479.198H8.875v3H17.5q.438 0 .75.333t.292.771q-.23 2.083-1.573 3.76-1.344 1.677-3.323 2.49v.562q0 .396-.292.688-.292.291-.687.291Zm-.604-13.25h.791V4.083l-.791.063Zm-2.063 0h.792v-.979l-.792.063Zm2.063 4.355h.791v-3h-.791Zm-2.063 0h.792v-3h-.792Z"/></svg>

<svg xmlns="http://www.w3.org/2000/svg" height="20" width="20"><path d="M7.396 18.562Q7 18.562 6.698 18.271Q6.396 17.979 6.396 17.583V17.021Q4.417 16.208 3.073 14.531Q1.729 12.854 1.521 10.771Q1.479 10.333 1.792 10Q2.104 9.667 2.562 9.667H3.438V4.062Q3.438 3.688 3.688 3.396Q3.938 3.104 4.312 3.062L17.458 1.604Q17.771 1.562 18 1.771Q18.229 1.979 18.229 2.292Q18.229 2.542 18.052 2.729Q17.875 2.917 17.625 2.958L8.875 3.958V5.312H17.542Q17.812 5.312 18 5.5Q18.188 5.688 18.188 5.979Q18.188 6.271 18 6.469Q17.812 6.667 17.521 6.667H8.875V9.667H17.5Q17.938 9.667 18.25 10Q18.562 10.333 18.542 10.771Q18.312 12.854 16.969 14.531Q15.625 16.208 13.646 17.021V17.583Q13.646 17.979 13.354 18.271Q13.062 18.562 12.667 18.562ZM6.792 5.312H7.583V4.083L6.792 4.146ZM4.729 5.312H5.521V4.333L4.729 4.396ZM6.792 9.667H7.583V6.667H6.792ZM4.729 9.667H5.521V6.667H4.729Z"/></svg>
